jeepney.svg

<svg fill="currentColor" viewBox="0 0 24 24"><path d="M19 13V7h1V4H4v3h1v6H2c0 .93.5 1.71 1.5 1.93V20a1 1 0 0 0 1 1h1a1 1 0 0 0 1-1v-1h11v1a1 1 0 0 0 1 1h1a1 1 0 0 0 1-1v-5.07c1-.23 1.5-1 1.5-1.93zM8 15a1.5 1.5 0 0 1-1.5-1.5A1.5 1.5 0 0 1 8 12a1.5 1.5 0 0 1 1.5 1.5A1.5 1.5 0 0 1 8 15m8 0a1.5 1.5 0 0 1-1.5-1.5A1.5 1.5 0 0 1 16 12a1.5 1.5 0 0 1 1.5 1.5A1.5 1.5 0 0 1 16 15m1.5-4.5c-1.58-.32-3.47-.5-5.5-.5s-4 .18-5.5.5V7h11z"/></svg>

<svg  viewBox="0 0 24 24" fill="currentColor"><path  d="M19,13V7H20V4H4V7H5V13H2C2,13.93 2.5,14.71 3.5,14.93V20A1,1 0 0,0 4.5,21H5.5A1,1 0 0,0 6.5,20V19H17.5V20A1,1 0 0,0 18.5,21H19.5A1,1 0 0,0 20.5,20V14.93C21.5,14.7 22,13.93 22,13H19M8,15A1.5,1.5 0 0,1 6.5,13.5A1.5,1.5 0 0,1 8,12A1.5,1.5 0 0,1 9.5,13.5A1.5,1.5 0 0,1 8,15M16,15A1.5,1.5 0 0,1 14.5,13.5A1.5,1.5 0 0,1 16,12A1.5,1.5 0 0,1 17.5,13.5A1.5,1.5 0 0,1 16,15M17.5,10.5C15.92,10.18 14.03,10 12,10C9.97,10 8,10.18 6.5,10.5V7H17.5V10.5Z"/></svg>
